packages/tokens/icons/lock/size24Px.svg

<svg viewBox="0 0 24 24" fill="none" xmlns="http://www.w3.org/2000/svg" width="1em" height="1em"><path d="M6.5 12C6.5 11.1716 7.17157 10.5 8 10.5L16 10.5C16.8284 10.5 17.5 11.1716 17.5 12V19C17.5 19.8284 16.8284 20.5 16 20.5H8C7.17157 20.5 6.5 19.8284 6.5 19L6.5 12Z" stroke="currentColor"/><path d="M15.5 10V7C15.5 5.067 13.933 3.5 12 3.5V3.5V3.5C10.067 3.5 8.5 5.067 8.5 7L8.5 10" stroke="currentColor"/><path d="M12 13.5C11.1716 13.5 10.5 14.1524 10.5 14.9571C10.5 15.4965 10.8016 15.9674 11.25 16.2193L10.875 17.5H13.125L12.75 16.2193C13.1984 15.9674 13.5 15.4965 13.5 14.9571C13.5 14.1524 12.8284 13.5 12 13.5Z" stroke="currentColor" stroke-linejoin="round"/></svg>

<svg xmlns="http://www.w3.org/2000/svg" fill="none" viewBox="0 0 24 24" width="1em" height="1em"><path stroke="currentColor" d="M6.5 12A1.5 1.5 0 0 1 8 10.5h8a1.5 1.5 0 0 1 1.5 1.5v7a1.5 1.5 0 0 1-1.5 1.5H8A1.5 1.5 0 0 1 6.5 19v-7Zm9-2V7a3.5 3.5 0 1 0-7 0v3"/><path stroke="currentColor" stroke-linejoin="round" d="M12 13.5c-.828 0-1.5.652-1.5 1.457 0 .54.302 1.01.75 1.262l-.375 1.281h2.25l-.375-1.28a1.45 1.45 0 0 0 .75-1.263c0-.805-.672-1.457-1.5-1.457Z"/></svg>
